X: 173
T:Shady Grove
S:Singing Family of the Cumberlands, 1955
L:1/8
M:2/4
K:EMin
EE EE/E/|FE    D2|EE/E/ FA|B3B|d>d BB|A(F/E/) D2|EF/F/ AF|E4||
EE E2   |FE/E/ D2|E>E   FA|B4 |d>d B2|AF/E/   D2|EF/F/ AF|E4|]

and in another familiar American song (but the chorus changes mode):

